X:312
T:Reel 312
M:4/4
K:Gmaj
L:1/8
g>g (3gfe d>B (3BAB |cAfA gAfA|Ggfg dcBA|BABA d2Bd|ggfg dBGA|cAfA gfeA|Ggfe ecdc|BGAF G2|d2|g2bg a2af|gfag fddf|gabg fgaf|egfa g2Bd|g2bg fgaf|gdeg fdef|gefd ecdB|AGAB c2|
